icons/CircleX.svg

<svg width="24" height="24" viewBox="0 0 24 24" fill="none" xmlns="http://www.w3.org/2000/svg">
<path fill-rule="evenodd" clip-rule="evenodd" d="M12,20.25c4.5563,0 8.25,-3.6937 8.25,-8.25c0,-4.55635 -3.6937,-8.25 -8.25,-8.25c-4.55635,0 -8.25,3.69365 -8.25,8.25c0,4.5563 3.69365,8.25 8.25,8.25zM21.75,12c0,5.3848 -4.3652,9.75 -9.75,9.75c-5.38478,0 -9.75,-4.3652 -9.75,-9.75c0,-5.38478 4.36522,-9.75 9.75,-9.75c5.3848,0 9.75,4.36522 9.75,9.75zM15.0303,8.96967c0.2929,0.29289 0.2929,0.76776 0,1.06063l-1.9696,1.9697l1.9696,1.9697c0.2929,0.2929 0.2929,0.7677 0,1.0606c-0.2929,0.2929 -0.7677,0.2929 -1.0606,0l-1.9697,-1.9696l-1.9697,1.9696c-0.29286,0.2929 -0.76773,0.2929 -1.06062,0c-0.2929,-0.2929 -0.2929,-0.7677 0,-1.0606l1.96962,-1.9697l-1.96962,-1.9696c-0.2929,-0.29293 -0.2929,-0.76781 0,-1.0607c0.29289,-0.2929 0.76776,-0.2929 1.06062,0l1.9697,1.9696l1.9697,-1.96963c0.2929,-0.2929 0.7677,-0.2929 1.0606,0z" fill="#002B51"/>
</svg>

<svg width="24" height="24" viewBox="0 0 24 24" fill="none" xmlns="http://www.w3.org/2000/svg">
<path fill-rule="evenodd" clip-rule="evenodd" d="M3.75 12C3.75 7.44365 7.44365 3.75 12 3.75C16.5563 3.75 20.25 7.44365 20.25 12C20.25 16.5563 16.5563 20.25 12 20.25C7.44365 20.25 3.75 16.5563 3.75 12ZM12 2.25C6.61522 2.25 2.25 6.61522 2.25 12C2.25 17.3848 6.61522 21.75 12 21.75C17.3848 21.75 21.75 17.3848 21.75 12C21.75 6.61522 17.3848 2.25 12 2.25ZM15.0303 8.96967C15.3232 9.26256 15.3232 9.73743 15.0303 10.0303L13.0607 12L15.0303 13.9697C15.3232 14.2626 15.3232 14.7374 15.0303 15.0303C14.7374 15.3232 14.2626 15.3232 13.9697 15.0303L12 13.0607L10.0303 15.0303C9.73744 15.3232 9.26257 15.3232 8.96968 15.0303C8.67678 14.7374 8.67678 14.2626 8.96968 13.9697L10.9393 12L8.96968 10.0304C8.67678 9.73747 8.67678 9.26259 8.96968 8.9697C9.26257 8.6768 9.73744 8.6768 10.0303 8.9697L12 10.9393L13.9697 8.96967C14.2626 8.67677 14.7374 8.67677 15.0303 8.96967Z" fill="#002B51"/>
</svg>
